zondicons/svg/calendar.svg

<svg width="20px" height="20px" viewBox="0 0 20 20" version="1.1" xmlns="http://www.w3.org/2000/svg" xmlns:xlink="http://www.w3.org/1999/xlink"><title>calendar</title><desc>Created with Sketch.</desc><defs></defs><g id="Page-1" stroke="none" stroke-width="1" fill="none" fill-rule="evenodd"><g id="calendar" fill="#000000"><path d="M1,3.99508929 C1,2.8932319 1.8926228,2 2.99508929,2 L17.0049107,2 C18.1067681,2 19,2.8926228 19,3.99508929 L19,18.0049107 C19,19.1067681 18.1073772,20 17.0049107,20 L2.99508929,20 C1.8932319,20 1,19.1073772 1,18.0049107 L1,3.99508929 Z M3,6 L17,6 L17,18 L3,18 L3,6 Z M5,0 L7,0 L7,2 L5,2 L5,0 Z M13,0 L15,0 L15,2 L13,2 L13,0 Z M5,9 L7,9 L7,11 L5,11 L5,9 Z M5,13 L7,13 L7,15 L5,15 L5,13 Z M9,9 L11,9 L11,11 L9,11 L9,9 Z M9,13 L11,13 L11,15 L9,15 L9,13 Z M13,9 L15,9 L15,11 L13,11 L13,9 Z M13,13 L15,13 L15,15 L13,15 L13,13 Z" id="Combined-Shape"></path></g></g></svg>

<svg xmlns="http://www.w3.org/2000/svg" viewBox="0 0 20 20"><path d="M1 4c0-1.1.9-2 2-2h14a2 2 0 0 1 2 2v14a2 2 0 0 1-2 2H3a2 2 0 0 1-2-2V4zm2 2v12h14V6H3zm2-6h2v2H5V0zm8 0h2v2h-2V0zM5 9h2v2H5V9zm0 4h2v2H5v-2zm4-4h2v2H9V9zm0 4h2v2H9v-2zm4-4h2v2h-2V9zm0 4h2v2h-2v-2z"/></svg>
